Adwaita++-Light/panel/16/calibre-tray.svg

<svg height="16" width="16" xmlns="http://www.w3.org/2000/svg">
  <path d="m4 1v14h9.142857c.474857 0 .857143-.39025.857143-.875v-12.25c0-.48475-.382286-.875-.857143-.875h-4.2857141z" fill="#444"/>
  <path d="m10 1v6h2v-6z" fill="#4285f4"/>
  <path d="m2.8571429 1c-.4748572 0-.8571429.39025-.8571429.875v12.25c0 .48475.3822857.875.8571429.875h1.1428571v-14z" fill="#444" opacity=".3"/>
</svg>

<svg xmlns="http://www.w3.org/2000/svg" width="16" height="16" version="1.1">
 <defs>
  <style id="current-color-scheme" type="text/css">
   .ColorScheme-Text { color:#444444; } .ColorScheme-Highlight { color:#4285f4; }
  </style>
 </defs>
 <path d="m 4,1 0,14 9.142857,0 C 13.617714,15 14,14.60975 14,14.125 L 14,1.875 C 14,1.39025 13.617714,1 13.142857,1 L 8.8571429,1 Z" style="fill:currentColor" class="ColorScheme-Text"/>
 <path d="m 10,1 0,6 2,0 0,-6 z" style="fill:currentColor" class="ColorScheme-Highlight"/>
 <path d="M 2.8571429,1 C 2.3822857,1 2,1.39025 2,1.875 l 0,12.25 C 2,14.60975 2.3822857,15 2.8571429,15 L 4,15 4,1 Z" style="opacity:0.3;fill:currentColor" class="ColorScheme-Text"/>
</svg>
